X: 39897
T: Thistle Schottische, The
R: barndance
M: 4/4
K: Gmajor
(3GBd (3gdB (3GBd (3gdB|(3GBd (3gdB G2 (3ABc||
d>BA>G E>G_E>G|D2 (3[Dd]dd [D2d2](3ABc|d>BA>G A>EF>G|A>fe>^d =d>Gd>B|
A>G_E>G D2 (3=EFG|A>EB>E c2 [EA^c]2|d>ed>B A>GE>F|G2 (3GGG G2 (3ABc|
d>BA>G E>G_E>G|(3D=E_E D>{=E_E}D D2 (3ABc|d>BA>G A>EF>G|A>fe>^d=d2 d>B|
A>G_E>G D2 (3=EFG|A>EB>E c2 [EA^c]2|d>ed>B A>GE>F|G2 (3GGG G>B,C>^C||
D2 (3D=ED D>Bc>B|(3EEE E>E E>FG>A|B>A (3A^GA d>A (3AGA|B2 (3BBB B>AB>G|
A>G_E>G D2 (3=EFG|A>EB>E c2 [EA^c]2|d>ed>B A>G (3DEF|G2 (3GGG G>B,C>B,|
D2 (3D=ED D>Bc>B|(3EEE E>E E>FG>A|B>A (3A^GA d>A (3AGA|B2 (3BBB B>AB>G|
A>G_E>G D2 (3=EFG|(3AGA (3BAB (3cBc (3^cBc|d>ed>B A>G (3DEF|G2 (3GGG G2 (3ABc||
(3dgd (3BdB G>Bd>B|(3cec (3AcA E2 A>G|(3FAd f>e (3ded (3cBA|(3GBA (3GFE D2 (3ABc|
(3dgd (3BdB G>Bd>B|(3cec (3AcA E2 A>G|(3FAd f>e (3ded (3cBA|(3GBd (3gdB (3GFG (3ABc|
(3dgd (3BdB (3GBd (3gdB|(3cec (3AcA (3EAc (3ecA|(3FAd (3faf (3ded (3cBA|(3GBA (3GFE (3DFG (3ABc|
(3dgd (3BdB (3GBd (3gdB|(3cec (3AcA (3EAc (3ecA|(3FAd (3faf (3ded (3cBA|(3GBd (3gdB G2 (3ABc||

